src/icon/entity/fingerprint/icon_fingerprint_m_black.svg

<?xml version="1.0" encoding="UTF-8"?>
<svg width="24px" height="24px" viewBox="0 0 24 24" version="1.1" xmlns="http://www.w3.org/2000/svg" xmlns:xlink="http://www.w3.org/1999/xlink">
    <!-- Generator: Sketch 49.3 (51167) - http://www.bohemiancoding.com/sketch -->
    <title>icon_fingerprint_m_black</title>
    <desc>Created with Sketch.</desc>
    <defs></defs>
    <g id="Page-1" stroke="none" stroke-width="1" fill="none" fill-rule="evenodd">
        <g id="icon_fingerprint_m_black">
            <polygon id="Shape" points="0 0 24 0 24 24 0 24"></polygon>
            <path d="M17.867,14.761 C17.912,13.436 17.387,12.133 16.564,11.104 C15.261,9.459 12.976,8.682 10.918,8.956 C8.93,9.207 6.964,10.556 6.142,12.407 C5.616,13.619 5.524,14.944 5.707,16.224 C6.05,18.555 7.262,20.681 8.953,22.304 C9.433,22.761 10.164,22.03 9.684,21.572 C8.267,20.202 7.216,18.487 6.804,16.544 C6.759,16.384 6.736,16.224 6.713,16.087 C6.713,16.064 6.713,16.018 6.69,15.996 C6.667,15.858 6.713,16.11 6.69,15.973 C6.69,15.904 6.667,15.813 6.667,15.744 C6.64064027,15.5316177 6.62561897,15.3179813 6.622,15.104 C6.622,14.647 6.667,14.213 6.759,13.779 C6.93474258,12.9415621 7.34705306,12.1721241 7.947,11.562 C8.244,11.264 8.473,11.104 8.77,10.876 C9.1721554,10.5967625 9.61053227,10.3737051 10.073,10.213 C11.17,9.847 12.313,9.893 13.387,10.236 C14.187,10.487 14.873,10.899 15.421,11.47 C15.718,11.767 15.878,11.973 16.107,12.362 C16.198,12.499 16.267,12.659 16.335,12.819 C16.358,12.864 16.381,12.887 16.381,12.933 C16.427,13.047 16.358,12.864 16.404,12.979 C16.427,13.047 16.472,13.139 16.495,13.207 C16.587,13.481 16.678,13.756 16.724,14.053 C16.724,14.121 16.747,14.167 16.747,14.236 C16.724,14.053 16.747,14.236 16.747,14.281 C16.77,14.464 16.77,14.647 16.77,14.807 C16.815,15.447 17.867,15.447 17.867,14.761 Z" id="Shape" fill="#0B1F35" fill-rule="nonzero"></path>
            <path d="M11.193,14.716 C11.17,15.698 11.513,16.681 11.993,17.527 C12.678,18.761 13.775,19.721 15.124,20.133 C16.175,20.453 17.227,20.407 18.324,20.293 C18.598,20.27 18.849,20.064 18.849,19.767 C18.849,19.493 18.621,19.218 18.324,19.241 C17.432,19.333 16.541,19.401 15.718,19.195 C15.4095009,19.123568 15.1104542,19.0161663 14.827,18.875 C14.69,18.807 14.553,18.715 14.415,18.647 C14.347,18.601 14.301,18.555 14.233,18.533 C14.1983948,18.5157823 14.1672185,18.4924 14.141,18.464 C14.118,18.441 14.118,18.441 14.141,18.464 C14.118,18.441 14.095,18.441 14.095,18.418 C13.8594222,18.2281355 13.6448645,18.0135778 13.455,17.778 C13.41,17.733 13.365,17.664 13.318,17.618 C13.387,17.687 13.25,17.527 13.25,17.504 C13.158,17.39 13.09,17.253 12.998,17.138 C12.862776,16.9092395 12.7409055,16.6728442 12.633,16.43 C12.633,16.407 12.61,16.384 12.61,16.361 C12.656,16.476 12.633,16.407 12.61,16.384 C12.587,16.316 12.564,16.27 12.541,16.201 C12.496,16.087 12.473,15.973 12.427,15.858 C12.358,15.653 12.313,15.448 12.267,15.241 C12.267,15.219 12.244,15.059 12.244,15.173 C12.267,15.287 12.244,15.127 12.244,15.104 L12.244,14.693 C12.244,14.053 11.216,14.053 11.193,14.716 Z M2.965,9.116 C2.98810875,9.0727562 3.01895226,9.03411707 3.056,9.002 C3.09402094,8.96193403 3.12480993,8.91558137 3.147,8.865 C3.17,8.819 3.262,8.727 3.147,8.865 C3.17,8.819 3.216,8.796 3.239,8.75 C3.536,8.385 3.879,8.019 4.222,7.676 C4.747,7.173 5.204,6.808 5.799,6.419 C6.49970796,5.96006522 7.2514274,5.5842055 8.039,5.299 C8.953,4.979 9.913,4.773 10.896,4.705 C11.3223566,4.68199789 11.7496434,4.68199789 12.176,4.705 C12.381,4.705 12.61,4.728 12.816,4.728 C12.9387905,4.73175829 13.0609736,4.74682195 13.181,4.773 C13.25,4.773 13.318,4.796 13.387,4.796 C13.524,4.819 13.273,4.773 13.41,4.796 C13.455,4.796 13.501,4.796 13.524,4.819 C14.21,4.933 14.895,5.093 15.558,5.322 C17.524,6.008 19.284,7.402 20.541,9.116 C20.701,9.345 20.998,9.459 21.249,9.299 C21.478,9.162 21.592,8.819 21.432,8.59 C20.198,6.876 18.575,5.482 16.632,4.636 C15.3307438,4.06761673 13.9364279,3.74225376 12.518,3.676 C11.17,3.608 9.776,3.699 8.473,4.065 C6.782,4.545 5.227,5.436 3.902,6.579 C3.239,7.173 2.576,7.836 2.096,8.59 C1.708,9.162 2.599,9.687 2.965,9.116 Z" id="Shape" fill="#0B1F35" fill-rule="nonzero"></path>
            <path d="M4.61,18.67 C4.359,18.053 4.222,17.413 4.107,16.75 C4.085,16.613 4.062,16.453 4.039,16.316 C4.039,16.293 4.016,16.156 4.039,16.316 C4.039,16.27 4.039,16.247 4.016,16.201 C4.016,16.11 3.993,16.018 3.993,15.927 C3.947,15.584 3.947,15.241 3.947,14.876 C3.947,14.51 3.97,14.121 4.016,13.756 C4.016,13.71 4.016,13.664 4.039,13.619 C4.016,13.733 4.039,13.596 4.039,13.573 C4.062,13.481 4.062,13.39 4.085,13.299 C4.13,13.093 4.153,12.887 4.222,12.704 C4.45,11.882 4.725,11.219 5.227,10.51 C5.46914367,10.1707996 5.74487152,9.8568786 6.05,9.573 C6.416,9.23 6.782,8.933 7.216,8.659 C8.29,7.973 9.524,7.493 10.804,7.379 C12.1935597,7.24662041 13.5947936,7.44219718 14.895,7.95 C15.9254225,8.32982817 16.8556682,8.93961793 17.615,9.733 C18.027,10.145 18.347,10.624 18.644,11.127 C18.804,11.402 18.964,11.699 19.101,11.996 C19.169,12.156 19.261,12.316 19.329,12.476 C19.284,12.384 19.307,12.453 19.329,12.476 C19.398,12.636 19.444,12.796 19.489,12.956 C19.535,13.093 19.558,13.23 19.581,13.367 C19.604,13.436 19.604,13.527 19.627,13.619 C19.627,13.664 19.649,13.71 19.649,13.756 C19.627,13.619 19.649,13.824 19.649,13.847 C19.672,14.03 19.672,14.213 19.672,14.419 L19.672,14.967 C19.672,14.921 19.672,14.921 19.672,14.967 C19.604,15.424 19.512,15.676 19.238,16.041 L19.192,16.11 L19.078,16.224 C19.0237403,16.2845836 18.9622855,16.3383146 18.895,16.384 C18.6651659,16.5601814 18.400201,16.6849911 18.118,16.75 C17.5034981,16.9377863 16.8401634,16.8804478 16.267,16.59 C15.8445141,16.3733091 15.5006909,16.0294859 15.284,15.607 C15.237886,15.519258 15.1997332,15.4275574 15.17,15.333 C15.1437107,15.2592824 15.1282171,15.1821513 15.124,15.104 C15.101,15.013 15.033,14.83 15.124,15.036 C15.078,14.921 15.124,14.761 15.101,14.647 C15.101,14.464 15.055,14.281 15.033,14.076 C14.53,11.562 10.941,10.784 9.319,12.659 C8.084,14.076 8.427,16.156 9.09,17.756 C9.844,19.606 11.284,21.07 13.067,21.961 C13.638,22.258 14.255,22.487 14.873,22.692 C15.513,22.898 15.787,21.892 15.147,21.687 C14.05,21.321 12.93,20.795 12.061,20.064 C11.33,19.47 10.827,18.83 10.37,18.03 L10.096,17.481 L10.073,17.436 C10.0515764,17.4003927 10.0360431,17.3615595 10.027,17.321 C9.98650148,17.2333627 9.95597672,17.141453 9.936,17.047 C9.82025575,16.7187176 9.72835044,16.3825113 9.661,16.041 C9.639,15.881 9.616,15.744 9.593,15.607 C9.593,15.561 9.593,15.539 9.57,15.516 C9.547,15.401 9.57,15.561 9.57,15.516 C9.57,15.447 9.547,15.379 9.547,15.31 C9.479,14.739 9.57,14.167 9.867,13.664 C10.507,12.613 11.764,12.43 12.816,12.864 C13.204,13.024 13.57,13.299 13.798,13.664 C14.073,14.099 14.05,14.579 14.118,15.104 C14.141,15.241 14.118,15.15 14.118,15.127 C14.118,15.196 14.141,15.241 14.141,15.31 C14.164,15.379 14.164,15.47 14.187,15.539 C14.233,15.699 14.301,15.881 14.37,16.019 C14.438,16.179 14.553,16.361 14.667,16.499 C15.1018066,17.0729325 15.7114635,17.4898999 16.404,17.687 C17.638,18.053 19.147,17.733 19.992,16.727 C21.021,15.493 20.907,13.687 20.427,12.224 C20.107,11.264 19.558,10.35 18.941,9.574 C18.2549522,8.67322468 17.3814976,7.93215308 16.381,7.402 C13.775,6.03 10.644,5.848 7.971,7.082 C6.119,7.927 4.519,9.367 3.719,11.264 C3.102,12.727 2.919,14.35 3.079,15.95 C3.17,16.91 3.353,17.87 3.673,18.784 C3.696,18.83 3.719,18.875 3.719,18.921 C3.833,19.195 4.062,19.378 4.359,19.287 C4.496,19.264 4.725,18.944 4.61,18.67 Z M5.776,3.562 C5.982,3.425 6.187,3.333 6.416,3.219 C6.52704384,3.17491121 6.63410266,3.1213818 6.736,3.059 C6.759,3.036 6.942,2.968 6.873,2.991 C6.804,3.036 6.919,2.968 6.919,2.968 C6.964,2.945 7.01,2.922 7.079,2.899 C7.376,2.785 7.696,2.671 8.016,2.579 C9.83547749,2.0236955 11.7548523,1.87552605 13.638,2.145 C15.1030527,2.37930535 16.5222956,2.8419259 17.844,3.516 C18.095,3.653 18.415,3.585 18.552,3.333 C18.689,3.105 18.621,2.739 18.37,2.625 C16.084,1.482 13.524,0.865 10.941,1.025 C9.28269698,1.12990262 7.65679639,1.53231301 6.141,2.213 C5.84018691,2.34284175 5.54997154,2.49597383 5.273,2.671 C5.045,2.831 4.93,3.128 5.09,3.379 C5.204,3.608 5.547,3.722 5.776,3.562 Z" id="Shape" fill="#0B1F35" fill-rule="nonzero"></path>
        </g>
    </g>
</svg>

<svg width="24" height="24" viewBox="0 0 24 24" xmlns="http://www.w3.org/2000/svg"><g fill="none" fill-rule="evenodd"><path d="M0 0h24v24H0z"/><path d="M17.867 14.761c.045-1.325-.48-2.628-1.303-3.657-1.303-1.645-3.588-2.422-5.646-2.148-1.988.251-3.954 1.6-4.776 3.451-.526 1.212-.618 2.537-.435 3.817.343 2.331 1.555 4.457 3.246 6.08.48.457 1.211-.274.731-.732-1.417-1.37-2.468-3.085-2.88-5.028-.045-.16-.068-.32-.091-.457 0-.023 0-.069-.023-.091-.023-.138.023.114 0-.023 0-.069-.023-.16-.023-.229a6.023 6.023 0 0 1-.045-.64c0-.457.045-.891.137-1.325a4.472 4.472 0 0 1 1.188-2.217c.297-.298.526-.458.823-.686.402-.28.84-.502 1.303-.663 1.097-.366 2.24-.32 3.314.023.8.251 1.486.663 2.034 1.234.297.297.457.503.686.892.091.137.16.297.228.457.023.045.046.068.046.114.046.114-.023-.069.023.046.023.068.068.16.091.228.092.274.183.549.229.846 0 .068.023.114.023.183-.023-.183 0 0 0 .045.023.183.023.366.023.526.045.64 1.097.64 1.097-.046z" fill="#0B1F35" fill-rule="nonzero"/><path d="M11.193 14.716c-.023.982.32 1.965.8 2.811.685 1.234 1.782 2.194 3.131 2.606 1.051.32 2.103.274 3.2.16.274-.023.525-.229.525-.526 0-.274-.228-.549-.525-.526-.892.092-1.783.16-2.606-.046a4.046 4.046 0 0 1-.891-.32c-.137-.068-.274-.16-.412-.228-.068-.046-.114-.092-.182-.114a.318.318 0 0 1-.092-.069c-.023-.023-.023-.023 0 0-.023-.023-.046-.023-.046-.046a4.236 4.236 0 0 1-.64-.64c-.045-.045-.09-.114-.137-.16.069.069-.068-.091-.068-.114-.092-.114-.16-.251-.252-.366a6.887 6.887 0 0 1-.365-.708c0-.023-.023-.046-.023-.069.046.115.023.046 0 .023-.023-.068-.046-.114-.069-.183-.045-.114-.068-.228-.114-.343-.069-.205-.114-.41-.16-.617 0-.022-.023-.182-.023-.068.023.114 0-.046 0-.069v-.411c0-.64-1.028-.64-1.051.023zm-8.228-5.6a.401.401 0 0 1 .091-.114.478.478 0 0 0 .091-.137c.023-.046.115-.138 0 0 .023-.046.069-.069.092-.115.297-.365.64-.731.983-1.074.525-.503.982-.868 1.577-1.257a10.8 10.8 0 0 1 2.24-1.12c.914-.32 1.874-.526 2.857-.594a11.88 11.88 0 0 1 1.28 0c.205 0 .434.023.64.023a2 2 0 0 1 .365.045c.069 0 .137.023.206.023.137.023-.114-.023.023 0 .045 0 .091 0 .114.023.686.114 1.371.274 2.034.503 1.966.686 3.726 2.08 4.983 3.794.16.229.457.343.708.183.229-.137.343-.48.183-.709-1.234-1.714-2.857-3.108-4.8-3.954a11.634 11.634 0 0 0-4.114-.96c-1.348-.068-2.742.023-4.045.389-1.691.48-3.246 1.371-4.571 2.514-.663.594-1.326 1.257-1.806 2.011-.388.572.503 1.097.869.526z" fill="#0B1F35" fill-rule="nonzero"/><path d="M4.61 18.67c-.251-.617-.388-1.257-.503-1.92-.022-.137-.045-.297-.068-.434 0-.023-.023-.16 0 0 0-.046 0-.069-.023-.115 0-.091-.023-.183-.023-.274-.046-.343-.046-.686-.046-1.051 0-.366.023-.755.069-1.12 0-.046 0-.092.023-.137-.023.114 0-.023 0-.046.023-.092.023-.183.046-.274.045-.206.068-.412.137-.595.228-.822.503-1.485 1.005-2.194a6.2 6.2 0 0 1 .823-.937c.366-.343.732-.64 1.166-.914 1.074-.686 2.308-1.166 3.588-1.28a8.92 8.92 0 0 1 4.091.571c1.03.38 1.96.99 2.72 1.783.412.412.732.891 1.029 1.394.16.275.32.572.457.869.068.16.16.32.228.48-.045-.092-.022-.023 0 0 .069.16.115.32.16.48.046.137.069.274.092.411.023.069.023.16.046.252 0 .045.022.091.022.137-.022-.137 0 .068 0 .091.023.183.023.366.023.572v.548c0-.046 0-.046 0 0-.068.457-.16.709-.434 1.074l-.046.069-.114.114a.999.999 0 0 1-.183.16c-.23.176-.495.301-.777.366a2.487 2.487 0 0 1-1.851-.16 2.268 2.268 0 0 1-.983-.983 1.658 1.658 0 0 1-.114-.274.812.812 0 0 1-.046-.229c-.023-.091-.091-.274 0-.068-.046-.115 0-.275-.023-.389 0-.183-.046-.366-.068-.571-.503-2.514-4.092-3.292-5.714-1.417-1.235 1.417-.892 3.497-.229 5.097.754 1.85 2.194 3.314 3.977 4.205.571.297 1.188.526 1.806.731.64.206.914-.8.274-1.005-1.097-.366-2.217-.892-3.086-1.623-.731-.594-1.234-1.234-1.691-2.034l-.274-.549-.023-.045a.386.386 0 0 1-.046-.115 1.289 1.289 0 0 1-.091-.274 7.236 7.236 0 0 1-.275-1.006c-.022-.16-.045-.297-.068-.434 0-.046 0-.068-.023-.091-.023-.115 0 .045 0 0 0-.069-.023-.137-.023-.206-.068-.571.023-1.143.32-1.646.64-1.051 1.897-1.234 2.949-.8.388.16.754.435.982.8.275.435.252.915.32 1.44.023.137 0 .046 0 .023 0 .069.023.114.023.183.023.069.023.16.046.229.046.16.114.342.183.48.068.16.183.342.297.48.435.574 1.044.99 1.737 1.188 1.234.366 2.743.046 3.588-.96 1.029-1.234.915-3.04.435-4.503-.32-.96-.869-1.874-1.486-2.65a7.821 7.821 0 0 0-2.56-2.172c-2.606-1.372-5.737-1.554-8.41-.32-1.852.845-3.452 2.285-4.252 4.182-.617 1.463-.8 3.086-.64 4.686.091.96.274 1.92.594 2.834.023.046.046.091.046.137.114.274.343.457.64.366.137-.023.366-.343.251-.617zM5.776 3.562c.206-.137.411-.229.64-.343a2.09 2.09 0 0 0 .32-.16c.023-.023.206-.091.137-.068-.069.045.046-.023.046-.023.045-.023.091-.046.16-.069.297-.114.617-.228.937-.32a12.967 12.967 0 0 1 5.622-.434 14.19 14.19 0 0 1 4.206 1.371c.251.137.571.069.708-.183.137-.228.069-.594-.182-.708-2.286-1.143-4.846-1.76-7.429-1.6a13.852 13.852 0 0 0-4.8 1.188c-.3.13-.591.283-.868.458-.228.16-.343.457-.183.708.114.229.457.343.686.183z" fill="#0B1F35" fill-rule="nonzero"/></g></svg>
